static/assets/images/networks/scroll.svg

<svg xmlns="http://www.w3.org/2000/svg" fill="none" viewBox="0 0 512 512"><path fill="#F0D6AF" d="M256 512c141.385 0 256-114.615 256-256S397.385 0 256 0 0 114.615 0 256s114.615 256 256 256"/><path fill="#FFEEDA" d="M383.366 318.007V121.653C383.104 105.224 370.309 92 354.249 92H153.951C110.732 92.668 76 128.866 76 173.213c0 14.96 3.917 27.783 9.924 39.004 5.092 9.35 13.057 18.166 20.891 24.711 2.22 1.869 1.175 1.069 7.965 5.343 9.401 5.876 20.108 8.815 20.108 8.815l-.131 117.412c.261 5.61.784 10.953 2.22 15.896 4.439 16.563 15.668 29.252 30.946 35.396 6.397 2.539 13.579 4.275 21.283 4.409l159.95.534c31.859 0 57.712-26.447 57.712-59.174.131-19.368-9.27-36.732-23.502-47.552"/><path fill="#EBC28E" d="M387.281 367.029c-.652 20.971-17.496 37.801-38.126 37.801l-110.072-.401c8.748-10.418 14.101-23.91 14.101-38.602 0-23.108-13.448-39.004-13.448-39.004h109.549c21.022 0 38.126 17.498 38.126 39.004z"/><path fill="#101010" d="M117.261 220.365c-12.666-12.288-21.545-28.184-21.545-47.018v-2.003c1.045-32.192 26.898-58.105 58.366-59.04h200.297c5.223.267 9.401 4.007 9.401 9.484v173.379c4.57.802 6.789 1.47 11.229 3.073 3.526 1.336 8.357 4.14 8.357 4.14V121.788c-.262-16.43-13.057-29.654-29.117-29.654H153.951C110.732 92.802 76 129.001 76 173.347c0 25.78 11.49 47.82 30.293 63.314 1.305 1.07 2.48 2.405 5.875 2.405 5.876 0 10.054-4.809 9.793-10.018-.13-4.408-1.958-6.011-4.7-8.683"/><path fill="#101010" d="M349.156 306.52H192.079c-10.577.133-19.064 8.817-19.064 19.635v23.108c.261 10.687 9.14 19.77 19.717 19.77h11.62v-19.77h-11.62V326.69h6.398c19.846 0 34.471 18.833 34.471 39.004 0 17.899-15.93 40.739-42.567 38.87-23.633-1.603-36.429-23.109-36.429-38.87v-195.82c0-8.816-7.051-16.029-15.669-16.029h-15.669v20.036h11.621v191.946c-.652 39.004 27.159 58.64 56.146 58.64l158.254.533C381.147 425 407 398.553 407 365.827s-25.984-59.307-57.844-59.307m38.125 60.509c-.652 20.971-17.496 37.801-38.126 37.801l-110.072-.401c8.748-10.418 14.101-23.91 14.101-38.602 0-23.108-13.448-39.004-13.448-39.004h109.549c21.022 0 38.126 17.498 38.126 39.004zM306.848 177.49H188.42v-20.036h118.428c5.353 0 9.793 4.408 9.793 10.018 0 5.477-4.308 10.018-9.793 10.018"/><path fill="#101010" d="M306.848 271.79H188.42v-20.037h118.428c5.353 0 9.793 4.409 9.793 10.019 0 5.476-4.308 10.018-9.793 10.018M327.74 224.64H188.42v-20.036h139.188c5.355 0 9.794 4.408 9.794 10.018.13 5.476-4.309 10.018-9.662 10.018"/></svg>

<svg width="512" height="512" viewBox="0 0 512 512" fill="none" xmlns="http://www.w3.org/2000/svg">
<path d="M256 512C397.385 512 512 397.385 512 256C512 114.615 397.385 0 256 0C114.615 0 0 114.615 0 256C0 397.385 114.615 512 256 512Z" fill="#F0D6AF"/>
<path d="M383.366 318.007V121.653C383.104 105.224 370.309 92 354.249 92H153.951C110.732 92.6679 76 128.866 76 173.213C76 188.173 79.9172 200.996 85.9235 212.217C91.0157 221.567 98.9806 230.383 106.815 236.928C109.035 238.797 107.99 237.997 114.78 242.271C124.181 248.147 134.888 251.086 134.888 251.086L134.757 368.498C135.018 374.108 135.541 379.451 136.977 384.394C141.416 400.957 152.645 413.646 167.923 419.79C174.32 422.329 181.502 424.065 189.206 424.199L349.156 424.733C381.015 424.733 406.868 398.286 406.868 365.559C406.999 346.191 397.598 328.827 383.366 318.007Z" fill="#FFEEDA"/>
<path d="M387.281 367.029C386.629 388 369.785 404.83 349.155 404.83L239.083 404.429C247.831 394.011 253.184 380.519 253.184 365.827C253.184 342.719 239.736 326.823 239.736 326.823H349.285C370.307 326.823 387.411 344.321 387.411 365.827L387.281 367.029Z" fill="#EBC28E"/>
<path d="M117.261 220.365C104.595 208.077 95.7163 192.181 95.7163 173.347V171.344C96.7609 139.152 122.614 113.239 154.082 112.304H354.379C359.602 112.571 363.78 116.311 363.78 121.788V295.167C368.35 295.969 370.569 296.637 375.009 298.24C378.535 299.576 383.366 302.38 383.366 302.38V121.788C383.104 105.358 370.309 92.1344 354.249 92.1344H153.951C110.732 92.8022 76 129.001 76 173.347C76 199.127 87.4903 221.167 106.293 236.661C107.598 237.731 108.773 239.066 112.168 239.066C118.044 239.066 122.222 234.257 121.961 229.048C121.831 224.64 120.003 223.037 117.261 220.365Z" fill="#101010"/>
<path d="M349.156 306.52H192.079C181.502 306.653 173.015 315.337 173.015 326.155V349.263C173.276 359.95 182.155 369.033 192.732 369.033H204.352V349.263H192.732V326.69C192.732 326.69 195.604 326.69 199.13 326.69C218.976 326.69 233.601 345.523 233.601 365.694C233.601 383.593 217.671 406.433 191.034 404.564C167.401 402.961 154.605 381.455 154.605 365.694V169.874C154.605 161.058 147.554 153.845 138.936 153.845H123.267V173.881H134.888V365.827C134.236 404.831 162.047 424.467 191.034 424.467L349.288 425C381.147 425 407 398.553 407 365.827C407 333.101 381.016 306.52 349.156 306.52ZM387.281 367.029C386.629 388 369.785 404.83 349.155 404.83L239.083 404.429C247.831 394.011 253.184 380.519 253.184 365.827C253.184 342.719 239.736 326.823 239.736 326.823H349.285C370.307 326.823 387.411 344.321 387.411 365.827L387.281 367.029Z" fill="#101010"/>
<path d="M306.848 177.49H188.42V157.454H306.848C312.201 157.454 316.641 161.862 316.641 167.472C316.641 172.949 312.333 177.49 306.848 177.49Z" fill="#101010"/>
<path d="M306.848 271.79H188.42V251.753H306.848C312.201 251.753 316.641 256.162 316.641 261.772C316.641 267.248 312.333 271.79 306.848 271.79Z" fill="#101010"/>
<path d="M327.74 224.64H188.42V204.604H327.608C332.963 204.604 337.402 209.012 337.402 214.622C337.532 220.098 333.093 224.64 327.74 224.64Z" fill="#101010"/>
</svg>
